X:1
T:In a Manger Laid So Lowly
T:In a Manger Laid So Lowly
T:William Batchelder Bradbury
T:William Batchelder Bradbury, 1867
T:Public Domain Courtesy of the Cyber Hymnal™
C:William Batchelder Bradbury
Z:Public Domain
Z:Courtesy of the Cyber Hymnal™
%%score ( 1 2 ) ( 3 4 )
L:1/8
Q:1/4=102
M:3/4
K:Ab
V:1 treble 
V:2 treble 
V:3 bass 
V:4 bass 
V:1
 C[B,D] | [DF]2 [CE]2 [CA][DB] | [CA]2 [B,G]2 [EB][Ec] | [Ed]3 [EB] [Ee][Ed] | [Ec]4 [CE][DF] | %5
w: 1.~In a|man- ger laid so|low- ly, Came the|Prince of Peace to|earth; While a|
w: 2.~As the|wise men from far|Per- sia Brought rich|gifts to Jew- ry’s|king, Grate- ful|
w: 3.~Where Christ’s|joy- ful king- dom|com- eth, Des- erts|blos- som as the|rose; And God’s|
 [DF]2 [CE]2 [CA][DB] | [CA]2 [B,G]2 [EB][Ec] | [Ee] (d/B/) [EA]2 [DG]2 | [CA]4 || %9
w: choir of an- gels|ho- ly Sang to|cel- e- * brate His|birth.|
w: love, a rich- er|trea- sure, Would we|as our * offer- ing|bring.|
w: gra- cious rain de-|scend- eth, Where the|cor- al * isl- and|grows.|
[M:6/8]"^Spirited" E2 F G2 A | B3 B3 | [=DB]2 [DB] [DB]2 [FA] | [EG]2 [FA] [GB]3 || %13
w: “Glo- ry in the|high- est,”|Sang the glad an-|gel- ic strain;|
w: “Glo- ry in the|high- est,”|Let us join th’an-|gel- ic strain;|
w: “Glo- ry in the|high- est,”|Once more sing th’an-|gel- ic strain,|
"^Refrain" [EA]2 [EB] [Ac]2 [Ad] | [Ae]3 [Ae]3 | [ce]2 [Ac] [Bd]2 [GB] | [Ac]2 [CA] [EB]3 | %17
w: ||||
w: “Glo- ry in the|high- est,”|“Peace on earth, good|will to men,”|
w: ||||
!ff! [ce]2 [Ac] [Bd]2 [FB] | [EA]3 B3 | [CA]6 |] %20
w: |||
w: “Peace on earth, good|will to|men.”|
w: |||
V:2
 A,2 | x6 | x6 | x6 | x6 | x6 | x6 | x E x4 | x4 ||[M:6/8] E2 F G2 A | B3 B3 | x6 | x6 || x6 | x6 | %15
 x6 | x6 | x6 | x3 (E2 D) | x6 |] %20
V:3
 [A,,E,][A,,E,] | [A,,A,]2 [A,,A,]2 [A,,E,][D,F,] | E,2 E,2 [E,G,][E,A,] | %3
 [E,B,]3 [E,G,] [E,G,][E,B,] | [A,,A,]4 [A,,E,][A,,E,] | [A,,A,]2 [A,,A,]2 [A,,E,][D,F,] | %6
 E,2 E,2 [E,G,]A, | [C,A,][D,D] [E,C]2 [E,B,]2 | [A,,A,]4 ||[M:6/8] E,2 F, G,2 A, | B,3 B,3 | %11
 [B,,B,]2 [B,,B,] [B,,B,]2 [B,,B,] | [E,B,]2 [E,B,] [E,B,]3 || [A,C]2 [A,D] [A,E]2 [A,D] | %14
 [A,C]3 [A,C]3 | z6 | z6 |!ff! A,2 A, [D,F,]2 [D,D] | [E,C]3 [E,G,]3 | [A,,A,]6 |] %20
V:4
 x2 | x6 | E,2 E,2 x2 | x6 | x6 | x6 | E,2 E,2 A, x | x6 | x4 ||[M:6/8] E,2 F, G,2 A, | B,3 B,3 | %11
 x6 | x6 || x6 | x6 | x6 | x6 | A,2 A, x3 | x6 | x6 |] %20

